src/assets/icons/credit-card 2.svg

<svg width="24" height="24" viewBox="0 0 24 24" fill="none" xmlns="http://www.w3.org/2000/svg">
<path d="M24 7.999V4C24 2.895 23.105 2 22 2H2C0.895 2 0 2.895 0 4V7.999H24Z" fill="#FB6B18"/>
<path d="M0 11V20C0 21.105 0.895 22 2 22H22C23.105 22 24 21.105 24 20V11H0ZM11 17H4V15H11V17ZM20 17H16V15H20V17Z" fill="#FB6B18"/>
</svg>

<svg xmlns="http://www.w3.org/2000/svg" width="24" height="24" fill="none" viewBox="0 0 24 24">
  <path fill="#FB6B18" d="M24 7.999V4a2 2 0 0 0-2-2H2a2 2 0 0 0-2 2v3.999h24ZM0 11v9a2 2 0 0 0 2 2h20a2 2 0 0 0 2-2v-9H0Zm11 6H4v-2h7v2Zm9 0h-4v-2h4v2Z"/>
</svg>
